!!!COM: Palestrina, Giovanni Perluigi da
!!!OPR: Spem In Alium
!!!OTL: Gloria
**kern	**kern	**kern	**kern
*Ibass	*Itenor	*Icalto	*Icant
!Bassus	!Tenor	!Altus	!Cantus
*clefF4	*clefGv2	*clefG2	*clefG2
*k[]	*k[]	*k[]	*k[]
*A:aeo	*A:aeo	*A:aeo	*A:aeo
*M4/2	*M4/2	*M4/2	*M4/2
=1	=1	=1	=1
0r	0r	1r	0ee
.	.	[1a	.
=2	=2	=2	=2
0r	0r	1a]	1cc
.	.	1f	[1ff
=3	=3	=3	=3
0r	0r	1.b-	2ff]
.	.	.	2ee
.	.	.	[1dd
.	.	2a	.
=4	=4	=4	=4
0r	0r	0g	1dd]
.	.	.	[1ee
=5	=5	=5	=5
0r	0r	1a	2ee]
.	.	.	2dd
.	.	1a	2cc
.	.	.	4b
.	.	.	4a
=6	=6	=6	=6
1r	0e	1g	2b
.	.	.	2b
[1A	.	2.a	1a
.	.	8g	.
.	.	8f	.
=7	=7	=7	=7
1A]	1c	2e	1cc
.	.	2.a	.
1F	[1f	.	1cc
.	.	4g	.
.	.	4f	.
.	.	4e	.
=8	=8	=8	=8
1.B-	2f]	2d	1.dd
.	2e	2e	.
.	[1d	2f	.
2A	.	2f	2cc
=9	=9	=9	=9
0G	1d]	0g	0b-
.	2e	.	.
.	[2d	.	.
=10	=10	=10	=10
1.A	2d]	0e	1a
.	4c	.	.
.	4B	.	.
.	2c	.	1r
2G	2B	.	.
=11	=11	=11	=11
2F	2A	0r	1a
4E	1d	.	.
4D	.	.	.
2E	.	.	1ee
2E	2c#	.	.
=12	=12	=12	=12
1D	2d	2r	2.ff
.	2d	1a	.
.	.	.	4ff
1r	2A	.	2ff
.	2c	2g	[2ee
=13	=13	=13	=13
0r	2d	2f	4ee]
.	.	.	4dd
.	2d	2f	1dd
.	1A	1e	.
.	.	.	2cc#
=14	=14	=14	=14
1r	2r	2d	2.dd
.	1d	1f	.
.	.	.	8cc
.	.	.	8b-
2r	.	.	1a
[2A	2c	2e	.
=15	=15	=15	=15
2A]	2A	2c	1r
2G	2B	2.e	.
1F	2c	.	2r
.	.	4d	.
.	2d	[2d	[2a
=16	=16	=16	=16
1E	1e	4d]	2a]
.	.	4B	.
.	.	2c#	2g
2D	1r	1d	1f
2d	.	.	.
=17	=17	=17	=17
2d	2r	1A	1e
2c	2a	.	.
2B	2a	1r	2d
2B	2g	.	2dd
=18	=18	=18	=18
1A	2f	2r	2dd
.	4e	2a	2cc
.	4d	.	.
1r	2e	2a	2b
.	2e	2g	2b
=19	=19	=19	=19
1A	2A	2f	2.a
.	2c	4e	.
.	.	4d	4b
2A	2A	4c	2cc
.	.	4d	.
2G	2B	[2e	[2b
=20	=20	=20	=20
2F	2c	2e]	4b]
.	.	.	4a
2F	4B	2d	1a
.	4A	.	.
1E	2B	[1e	.
.	2B	.	2g#
=21	=21	=21	=21
2r	4A	1e]	[0a
.	4B	.	.
1A	4c	.	.
.	4d	.	.
.	4e	1r	.
.	4c	.	.
2A	[2f	.	.
=22	=22	=22	=22
1D	2f]	1r	0a]
.	4e	.	.
.	4d	.	.
1A	1c	[1e	.
=23	=23	=23	=23
2A	2r	2e]	0r
2G	1e	2e	.
[1c	.	1A	.
.	2e	.	.
=24	=24	=24	=24
2c]	1A	1a	0r
4B	.	.	.
4A	.	.	.
1B-	1d	2a	.
.	.	2g	.
=25	=25	=25	=25
1A	2d	2f	1.a
.	2c	2e	.
1r	[1f	2.d	.
.	.	.	2a
.	.	4c	.
=26	=26	=26	=26
0r	2f]	1B-	2d
.	4e	.	2dd
.	4d	.	.
.	1e	1A	2dd
.	.	.	2cc
=27	=27	=27	=27
2r	1d	1r	1.ff
1d	.	.	.
.	1r	[1a	.
2d	.	.	4ee
.	.	.	4dd
=28	=28	=28	=28
2c	0r	2a]	0ee
2A	.	2a	.
[1c	.	2g	.
.	.	2e	.
=29	=29	=29	=29
2c]	0r	1g	1dd
2B-	.	.	.
2.A	.	2f	1r
.	.	[2e	.
4G	.	.	.
=30	=30	=30	=30
2F	2r	4e]	0r
.	.	4d	.
2G	1g	1d	.
1E	.	.	.
.	2g	2c#	.
=31	=31	=31	=31
0D	2f	0d	2r
.	2d	.	1dd
.	[1f	.	.
.	.	.	2dd
=32	=32	=32	=32
2r	2f]	1A	2cc
1A	4e	.	2a
.	4d	.	.
.	2e	1r	[1cc
2A	2c	.	.
=33	=33	=33	=33
1G	2.d	0r	2cc]
.	.	.	2b-
.	4e	.	.
2F	2f	.	2.a
2A	[2e	.	.
.	.	.	4g
=34	=34	=34	=34
2B-	4e]	0r	2f
.	4d	.	.
2G	1d	.	2g
2.A	.	.	1e
.	2c	.	.
4G	.	.	.
=35	=35	=35	=35
2F	2A	2r	1d
1G	1B-	2d	.
.	.	2d	2r
4F	4A	2d	2a
4E	4G	.	.
=36	=36	=36	=36
1D	0A	2.f	2a
.	.	.	2a
.	.	4g	.
1r	.	2a	2.cc
.	.	2f	.
.	.	.	4dd
=37	=37	=37	=37
0r	0r	2g	2ee
.	.	2a	2cc
.	.	1b-	2dd
.	.	.	2dd
=38	=38	=38	=38
0r	2r	1a	1ff
.	1d	.	.
.	.	2r	1ee
.	2c	[2a	.
=39	=39	=39	=39
0r	1d	2a]	2r
.	.	2f	1dd
.	2e	2g	.
.	[2f	2a	2cc
=40	=40	=40	=40
0r	4f]	2d	1dd
.	4e	.	.
.	2d	2.a	.
.	2c#	.	2ee
.	.	4g	.
.	[2d	4f	[2ff
.	.	4e	.
=41	=41	=41	=41
0r	2d]	2d	2ff]
.	2c#	2e	1ee
.	1d	2f	.
.	.	2f	2dd
=42	=42	=42	=42
2r	1A	0e	0ee
2A	.	.	.
2A	2r	.	.
2A	2A	.	.
=43	=43	=43	=43
2.c	2A	2r	0r
.	2A	2e	.
4B	.	.	.
4A	2.c	2e	.
4G	.	.	.
2A	.	2e	.
.	4d	.	.
=44	=44	=44	=44
2E	2e	2g	1r
1F	2c	2a	.
.	2d	2f	1a
2C	2e	2e	.
=45	=45	=45	=45
2D	2f	2d	2a
2D	2f	2d	2a
[1A	2.e	2.c	2.cc
.	4d	4B	4dd
=46	=46	=46	=46
1A]	2c	2A	2ee
.	1f	1a	2cc
1r	.	.	2dd
.	2e	2g#	2ee
=47	=47	=47	=47
1r	2d	2a	2ff
.	2d	2a	2ff
[1A	2.c	1a	1ee
.	4d	.	.
=48	=48	=48	=48
1A]	1e	1.cc	1.a
[1F	[1a	.	.
.	.	2b-	2b-
=49	=49	=49	=49
2F]	2a]	1a	1cc
2G	2g	.	.
2A	[1f	1a	1cc
2B-	.	.	.
=50	=50	=50	=50
0c	2f]	0g	0cc
.	4e	.	.
.	4d	.	.
.	1e	.	.
=51	=51	=51	=51
[0F	[0f	1f	0a
.	.	2r	.
.	.	2a	.
=52	=52	=52	=52
1F]	1f]	2a	2r
.	.	2a	2cc
1r	1r	1b-	2dd
.	.	.	2dd
=53	=53	=53	=53
1r	0r	2a	1ff
.	.	2f	.
1A	.	4a	2ee
.	.	4g	.
.	.	4a	2cc
.	.	4b	.
=54	=54	=54	=54
2A	1c	2cc	1ee
2A	.	1a	.
1B-	2d	.	1dd
.	2d	2g	.
=55	=55	=55	=55
2A	1f	1a	0cc
2F	.	.	.
4A	2e	2r	.
4G	.	.	.
4A	2c	2a	.
4B	.	.	.
=56	=56	=56	=56
2c	2e	2a	0r
1d	2.f	2a	.
.	.	1b-	.
.	4e	.	.
2G	[2d	.	.
=57	=57	=57	=57
0A	2d]	1a	1ee
.	4c	.	.
.	4B	.	.
.	1c#	2r	2ee
.	.	2a	2ee
=58	=58	=58	=58
1r	1d	2a	1ff
.	.	2a	.
2r	1A	2.cc	2.ee
2A	.	.	.
.	.	4b	4dd
=59	=59	=59	=59
2A	2r	2.a	4cc
.	.	.	4b
2A	2c	.	1a
.	.	4g	.
1B-	2d	4f	.
.	.	4e	.
.	2d	[2d	2g
=60	=60	=60	=60
0A	2f	2d]	[0a
.	4e	4c	.
.	4d	4B	.
.	1e	1c#	.
=61	=61	=61	=61
0D	2.f	2.d	1a_
.	4e	4e	.
.	1d	1f	1a_
=62	=62	=62	=62
0A	0c#	0e	0a]
=63	=63	=63	=63
0r	0r	1r	0a
.	.	1d	.
=64	=64	=64	=64
0r	0r	1a	1cc
.	.	2g	2b
.	.	[2cc	2a
=65	=65	=65	=65
0r	0r	4cc]	2.cc
.	.	4b	.
.	.	2a	.
.	.	.	4dd
.	.	2g	2ee
.	.	2f	[2ff
=66	=66	=66	=66
1r	0A	2.a	2ff]
.	.	.	1ee
.	.	4g	.
1D	.	1f	.
.	.	.	2dd
=67	=67	=67	=67
1A	1c	0e	[0ee
2G	2B	.	.
[2c	2A	.	.
=68	=68	=68	=68
4c]	2.c	0r	1ee]
4B	.	.	.
2A	.	.	.
.	4d	.	.
2G	2e	.	1r
2F	[2f	.	.
=69	=69	=69	=69
2.A	2f]	1a	0r
.	1e	.	.
4G	.	.	.
1F	.	2a	.
.	2d	[2a	.
=70	=70	=70	=70
1E	2c	2a]	1ee
.	2B	2g	.
[1A	1A	1cc	2ee
.	.	.	[2ee
=71	=71	=71	=71
1A]	1r	0a	2ee]
.	.	.	2cc
1r	[1d	.	1ff
=72	=72	=72	=72
1A	2d]	2.a	1ee
.	2c	.	.
.	.	8g	.
.	.	8f	.
2A	1c	2.e	2r
[2A	.	.	2a
.	.	4d	.
=73	=73	=73	=73
2A]	1c	2e	2a
2F	.	2.f	1a
1B-	1d	.	.
.	.	4e	.
.	.	[2d	2g
=74	=74	=74	=74
0A	0e	2d]	0a
.	.	4c	.
.	.	4B	.
.	.	1c#	.
=75	=75	=75	=75
0D	2r	2d	[0a
.	2f	2d	.
.	1d	1f	.
=76	=76	=76	=76
1r	2c	2e	0a]
.	2.f	2d	.
1D	.	2.f	.
.	4e	.	.
.	2d	.	.
.	.	4g	.
=77	=77	=77	=77
1F	2c	1a	0r
.	2d	.	.
2E	2e	2g	.
2D	[2f	[2a	.
=78	=78	=78	=78
2F	2f]	2a]	1r
2G	4e	4g	.
.	4d	4f	.
1A	2.c	1e	1a
.	4B	.	.
=79	=79	=79	=79
1A	2A	2e	1cc
.	2c	2e	.
1r	2e	2g	2b
.	[2f	2a	2a
=80	=80	=80	=80
1r	2f]	1f	2cc
.	1d	.	2dd
[1A	.	1e	1ee
.	2c#	.	.
=81	=81	=81	=81
2A]	2r	2r	1a
2A	1e	1a	.
[1A	.	.	[1cc
.	2e	2a	.
=82	=82	=82	=82
1A]	1e	0a	2cc]
.	.	.	2cc
1r	[1f	.	1cc
=83	=83	=83	=83
1.F	2f]	1.a	2r
.	2f	.	1cc
.	1f	.	.
2F	.	2a	2cc
=84	=84	=84	=84
[0F	2r	0a	1cc
.	2c	.	.
.	2c	.	2r
.	2A	.	2cc
=85	=85	=85	=85
1F]	2c	2r	2cc
.	2d	2f	2a
1r	2A	2f	2cc
.	[2f	2d	[2dd
=86	=86	=86	=86
0r	2f]	2f	2dd]
.	2e	2g	2ee
.	1d	2a	1ff
.	.	2b	.
=87	=87	=87	=87
2r	1c	4cc	4ee
.	.	4b	4dd
2F	.	4a	4cc
.	.	4g	4b
2F	2r	2.f	2a
2D	[2d	.	2ff
.	.	4g	.
=88	=88	=88	=88
2F	2d]	2a	2ff
1G	2d	1b-	2dd
.	2g	.	2ee
2A	2f	4a	[2ff
.	.	4g	.
=89	=89	=89	=89
1B-	2d	2f	4ff]
.	.	.	4ee
.	2d	2g	1dd
1A	1e	1a	.
.	.	.	2cc#
=90	=90	=90	=90
[0D	1d	[0f#	0dd
.	2r	.	.
.	2d	.	.
=91	=91	=91	=91
1D]	1d	1f#]	2r
.	.	.	2a
1r	2d	1r	1a
.	2c	.	.
=92	=92	=92	=92
0r	2d	0r	2a
.	2e	.	2g
.	2f	.	2a
.	[2e	.	2b
=93	=93	=93	=93
2r	4e]	0r	4cc
.	4d	.	4b
1F	2.f	.	4a
.	.	.	4g
.	.	.	2a
.	4e	.	.
2G	[2d	.	4g
.	.	.	4f
=94	=94	=94	=94
2A	2d]	1r	1e
2A	2c#	.	.
[1B-	2d	2r	1d
.	[2d	[2f	.
=95	=95	=95	=95
1B-]	2d]	2f]	1r
.	2d	2g	.
2.A	2f	2a	2r
.	[2e	2a	[2cc
4G	.	.	.
=96	=96	=96	=96
2F	2e]	1a	2cc]
2D	1d	.	2dd
1A	.	[1a	2ee
.	2c#	.	2ee
=97	=97	=97	=97
2r	1d	1a]	1ff
1d	.	.	.
.	[1A	2r	[1ee
2c	.	[2a	.
=98	=98	=98	=98
2A	1A]	2a]	1ee]
2c	.	2e	.
2B	2r	2g	1r
2A	[2a	2f	.
=99	=99	=99	=99
1B	2a]	2.d	1.dd
.	2g#	.	.
.	.	4e	.
[1A	2a	2f	.
.	2A	2e	2cc
=100	=100	=100	=100
1A]	2.c	4e	2a
.	.	4d	.
.	.	4e	2cc
.	4d	4f	.
1r	2e	2g	2b
.	2f	[2a	2a
=101	=101	=101	=101
1E	1e	2a]	1b
.	.	2g#	.
[1A	2c	1a	[1a
.	2A	.	.
=102	=102	=102	=102
2A]	2c	2r	1a]
2A	2c	1e	.
2G	2B	.	2r
2F	2A	[2a	2a
=103	=103	=103	=103
1E	1B	2a]	1ee
.	.	2g	.
1r	1A	2.cc	2ee
.	.	.	2ee
.	.	8b	.
.	.	8a	.
=104	=104	=104	=104
1r	2r	2b	2dd
.	2A	1a	2cc
1E	1e	.	2.b
.	.	4g	.
.	.	4f#	4a
=105	=105	=105	=105
2E	2e	1.g	2b
2C	2e	.	2cc
1D	2.d	.	2b
.	.	2f	[2a
.	4c	.	.
=106	=106	=106	=106
1E	0B	0e	2a]
.	.	.	4g
.	.	.	4f#
1E	.	.	2g#
.	.	.	2g#
=107	=107	=107	=107
[0A	2r	2r	[0a
.	1A	1c	.
.	2B	2d	.
=108	=108	=108	=108
1A]	1c	1e	0a]
1r	1d	1f	.
=109	=109	=109	=109
1.A	1c	1e	2r
.	.	.	1cc
.	1f	1a	.
2B	.	.	2dd
=110	=110	=110	=110
1c	2e	2g	1ee
.	1a	1cc	.
1d	.	.	[1ff
.	4g	2b	.
.	4f	.	.
=111	=111	=111	=111
0c	2a	[0cc	2ff]
.	2g	.	4ee
.	.	.	4dd
.	2r	.	1ee
.	2c	.	.
=112	=112	=112	=112
1F	2c	1cc]	0a
.	2A	.	.
2F	2c	2r	.
2D	[2d	2f	.
=113	=113	=113	=113
2F	2d]	2f	1r
2G	2B	2d	.
2.A	1c	2f	2r
.	.	4e	2cc
4B	.	4d	.
=114	=114	=114	=114
2c	2r	4e	2cc
.	.	4d	.
1F	2f	4c	2a
.	.	4B-	.
.	2f	2A	2cc
[2f	2d	[2a	[2dd
=115	=115	=115	=115
2f]	2f	2a]	4dd]
.	.	.	4cc
2e	2.g	2g	1cc
2d	.	2a	.
.	4f	.	.
2d	[2f	4g	2b
.	.	4f	.
=116	=116	=116	=116
0c	2f]	1g	0cc
.	4e	.	.
.	4d	.	.
.	2e	1g	.
.	2e	.	.
!! coda
*Ibass	*Itenor	*Icalto	*Icant
!Bassus	!Tenor	!Altus	!Cantus
*clefF4	*clefGv2	*clefG2	*clefG2
*k[]	*k[]	*k[]	*k[]
*A:aeo	*A:aeo	*A:aeo	*A:aeo
*M3/2	*M3/2	*M3/2	*M3/2
=117	=117	=117	=117
[1.F	1.f	2f	1.a
.	.	2r	.
.	.	2c	.
=118	=118	=118	=118
1.F]	2r	2c	1a
.	2c	2A	.
.	2c	[2c	2r
=119	=119	=119	=119
1r	2A	4c]	2cc
.	.	4d	.
.	2c	2e	2cc
2r	2d	2f	2a
=120	=120	=120	=120
1r	2e	2g	1cc
.	1f	1a	.
2r	.	.	2dd
=121	=121	=121	=121
1r	2e	2g	2ee
.	2d	1a	1ff
2F	[2f	.	.
=122	=122	=122	=122
2F	4f]	2a	2cc
.	4g	.	.
2D	1a	2f	1ff
2F	.	2a	.
=123	=123	=123	=123
2G	2g	2b	2.ee
2A	1f	2cc	.
.	.	.	4cc
2B	.	4b	2dd
.	.	4a	.
=124	=124	=124	=124
2.c	2e	2g	1.ee
.	2r	2.cc	.
4B	.	.	.
4A	2c	.	.
4G	.	4b	.
=125	=125	=125	=125
2.A	2c	4a	2r
.	.	4g	.
.	2A	2.a	2cc
4G	.	.	.
[2F	2c	.	2cc
.	.	4g	.
=126	=126	=126	=126
2F]	2d	2f	2a
2E	2e	2g	2cc
2D	2f	[2a	2dd
=127	=127	=127	=127
2C#	2e	2a]	2ee
4D	1d	1a	1ff
4E	.	.	.
4F	.	.	.
4G	.	.	.
=128	=128	=128	=128
2A	2c	1.a	2ee
1D	1f	.	1dd
=129	=129	=129	=129
[1.A	[1.e	[1.a	[1.cc#
=130	=130	=130	=130
1.A]	1.e]	1.a]	1.cc#]
==	==	==	==
*-	*-	*-	*-
!!!CDT: 1525/^1526/-1594/2/2
!!!OCY: Italia
!!!AGN: Mass (Parody)
!!!AST: renaissance, vocal
!!!ASW: Motet 1539 (Jacquet)
!!!PWK: Masses, Book 3
!!!RNB: Cadence finals: D
!!!YOR: Le Opere Complete, v. 6, p. 1
!!!YOO: Rome, Italy: Fratelli Scalera
!!!END: 1992//
!!!EED: John Miller
!!!YEC: Copyright 2000, John Miller
!!!YEN: United States of America
!!!YEM: Rights to all derivative electronic formats reserved.
!!!YEM: Refer to licensing agreement for further details.
!!!YEM: This file must be accompanied by the licensing agreement.
!!!YEM: A copy of the licensing agreement may be found at http://www.music-cog.ohio-state.edu/HumdrumDatabases/Palestrina/license.txt
!!!EMD: converted to Humdrum by Bret Aarden
